X: 98
T: Zana ha er ma The black horse zmon
%%abc-version 2.0
%%abcx-abcm2ps-target-version 5.9.1 (29 Sep 2008)
%%abc-creator hum2abc beta
%%abcx-conversion-date 2013/10/02 07:44:27
%%abc-edited-by Helmut Schaffrath
%%humdrum-veritas 2791963162
%%humdrum-veritas-data 853819608
%%continueall 1
%%barnumbers 0
L: 1/8
M: 2/4
K: C
G G/ E/ G A [I:setbarnb 1]| 
c3d | 
c> d e/ d/ e/ g/ | 
G4 | 
c c/ d/ E D/ E/ | 
G3A | 
D> G E D | 
C4 | 
G G/ E/ G A | 
c3d | 
c> d e/ d/ e/ g/ | 
G4 | 
G> A c E | 
D3E | 
D> G E D | 
C4 |]  



